icon/gr/document-test.svg

<svg xmlns="http://www.w3.org/2000/svg" viewBox="0 0 24 24" height="1em" width="1em">
  <path fill="none" stroke="#000" stroke-width="2" d="M4.99787498,5.99999999 L4.99787498,0.999999992 L19.4999998,0.999999992 L22.9999998,4.50000005 L23,23 L20,23 M18,1 L18,6 L23,6 M6,9 L14,9 M8,9 L8,13.5 L3,21.5 L3,23 L17,23 L17,21.4188612 L12,13.5 L12,9 M5.5,17.5 C5.5,17.5 7.5,19.0000002 10,17.5000001 C12.5,16 14.5,17.5000001 14.5,17.5000001"/>
</svg>

<svg xmlns="http://www.w3.org/2000/svg" width="24" height="24"><path fill="none" stroke="#000" stroke-width="2" d="M4.998 6V1H19.5L23 4.5V23h-3M18 1v5h5M6 9h8M8 9v4.5l-5 8V23h14v-1.581L12 13.5V9m-6.5 8.5s2 1.5 4.5 0 4.5 0 4.5 0"/></svg>
